src/assets/icons/hand-up.svg

<?xml version="1.0" encoding="UTF-8" standalone="no"?>
<svg width="124px" height="124px" viewBox="0 0 124 124" version="1.1" xmlns="http://www.w3.org/2000/svg" xmlns:xlink="http://www.w3.org/1999/xlink" xmlns:sketch="http://www.bohemiancoding.com/sketch/ns">
    <!-- Generator: Sketch 3.3.3 (12081) - http://www.bohemiancoding.com/sketch -->
    <title>hand_up</title>
    <desc>Created with Sketch.</desc>
    <defs></defs>
    <g id="Page-1" stroke-width="1" fill-rule="evenodd" sketch:type="MSPage">
        <g id="hand_up" sketch:type="MSLayerGroup">
            <path d="M61.997,6.314 C31.318,6.314 6.359,31.075 6.359,61.511 C6.359,91.946 31.318,116.707 61.997,116.707 C92.676,116.707 117.635,91.946 117.635,61.511 C117.635,31.075 92.676,6.314 61.997,6.314 L61.997,6.314 L61.997,6.314 Z M61.997,123.016 C27.812,123.016 0,95.425 0,61.511 C0,27.597 27.812,0.006 61.997,0.006 C96.182,0.006 123.994,27.597 123.994,61.511 C123.994,95.425 96.182,123.016 61.997,123.016 L61.997,123.016 L61.997,123.016 Z" id="Fill-1" sketch:type="MSShapeGroup"></path>
            <path d="M94.7601641,65.7276308 C92.708759,63.6444308 89.7085949,63.6622359 87.7048821,65.7975795 C85.1810051,68.4861538 82.676841,72.384841 80.1593231,75.0810462 C79.936759,75.3195077 79.6785846,75.5236308 79.2887795,75.8765538 L79.2887795,74.3707487 C79.2887795,60.9253333 79.2932308,46.2901538 79.2741538,32.8441026 C79.2735179,32.1484308 79.2003897,31.3936205 78.9269538,30.7672615 C78.0735795,28.8080615 75.968759,27.8694769 73.7755487,28.3514872 C71.6751795,28.8131487 70.4014769,30.4022564 70.4002051,32.6170872 C70.3932103,41.223959 70.3970256,49.8314667 70.3976615,58.4383385 L70.3976615,59.8334974 L67.6226051,59.8334974 L67.6226051,58.4523282 C67.6226051,46.9489436 67.6321436,35.4474667 67.6016205,23.9453538 C67.6003487,23.1822769 67.4458256,22.3435282 67.1030769,21.6732923 C66.1460513,19.8037538 64.0564923,19.0165128 61.9147897,19.5729231 C59.9002667,20.0956308 58.7270359,21.6593026 58.7264,23.8709538 C58.7219487,35.3730667 58.7244923,46.8751795 58.7244923,58.3779282 L58.7244923,59.8500308 L56.5160205,59.8500308 L56.5160205,58.3938256 C56.5166564,48.6766769 56.4645128,38.9588923 56.5541744,29.2423795 C56.5764308,26.9029128 54.8429744,24.6397538 52.0170462,24.6645538 C49.4003282,24.6874462 47.6191795,26.5429949 47.6185436,29.2290256 C47.6166359,38.9868718 47.6179077,48.7440821 47.6179077,58.5006564 L47.6179077,59.8710154 L45.7629949,59.8710154 L45.7629949,58.4326154 C45.7629949,51.491159 45.7757128,44.5503385 45.7451897,37.6095179 C45.7420103,36.8801436 45.6345436,36.0795487 45.3197744,35.4372923 C44.3595692,33.4812718 42.2216821,32.6565128 39.9559795,33.2339077 C38.1303179,33.6987487 36.8845949,35.4277538 36.883959,37.5224 C36.8820513,52.8316308 36.8394462,68.1414974 36.9163897,83.452 C36.933559,86.8476923 37.1542154,87.5675282 37.6699282,90.9218872 C38.8514256,98.6016205 43.2092308,103.405826 50.734441,104.869026 C51.4434667,105.007651 52.1524923,105.115754 52.8621538,105.210503 L52.8621538,83.4297436 L44.8275897,83.4297436 L58.9362462,69.9480821 L73.0442667,83.4297436 L65.0090667,83.4297436 L65.0090667,104.937703 C71.3457846,103.690708 75.8434872,100.183733 79.9844513,94.3805333 C83.8087385,89.1598154 87.079159,84.9883282 90.6268308,78.9377641 C92.1892308,76.2714462 93.7668923,73.6133949 95.3102154,70.9356308 C96.4554667,68.9452718 96.255159,67.2467897 94.7601641,65.7276308" id="Fill-4" fill="currentColor" sketch:type="MSShapeGroup"></path>
        </g>
    </g>
</svg>

<svg width="124" height="124" xmlns="http://www.w3.org/2000/svg"><g fill-rule="evenodd"><path d="M61.997 6.314c-30.679 0-55.638 24.761-55.638 55.197 0 30.435 24.959 55.196 55.638 55.196s55.638-24.761 55.638-55.196c0-30.436-24.959-55.197-55.638-55.197zm0 116.702C27.812 123.016 0 95.425 0 61.511S27.812.006 61.997.006s61.997 27.591 61.997 61.505-27.812 61.505-61.997 61.505z"/><path d="M94.76 65.728c-2.051-2.084-5.051-2.066-7.055.07-2.524 2.688-5.028 6.587-7.546 9.283-.222.239-.48.443-.87.796V74.37c0-13.446.004-28.08-.015-41.527 0-.696-.074-1.45-.347-2.077-.853-1.959-2.958-2.898-5.151-2.416-2.1.462-3.375 2.051-3.376 4.266-.007 8.607-.003 17.214-.002 25.821v1.395h-2.775v-1.38c0-11.504.01-23.006-.021-34.508-.002-.763-.156-1.601-.499-2.272-.957-1.87-3.047-2.656-5.188-2.1-2.015.523-3.188 2.086-3.189 4.298-.004 11.502-.002 23.004-.002 34.507v1.472h-2.208v-1.456c0-9.717-.051-19.435.038-29.152.022-2.34-1.711-4.602-4.537-4.577-2.617.022-4.398 1.878-4.398 4.564-.002 9.758-.001 19.515-.001 29.272v1.37h-1.855v-1.438c0-6.942.013-13.883-.018-20.823-.003-.73-.11-1.53-.425-2.173-.96-1.956-3.098-2.78-5.364-2.203-1.826.465-3.071 2.194-3.072 4.288-.002 15.31-.045 30.62.032 45.93.018 3.396.238 4.116.754 7.47 1.181 7.68 5.54 12.484 13.064 13.947.71.139 1.418.247 2.128.342V83.43h-8.034l14.108-13.482L73.044 83.43H65.01v21.508c6.337-1.247 10.834-4.754 14.975-10.557 3.825-5.221 7.095-9.393 10.643-15.443 1.562-2.667 3.14-5.325 4.683-8.002 1.145-1.99.945-3.69-.55-5.208" fill="currentColor"/></g></svg>
